X:30
T:Canadian Boat Song,The. WHG.030
R:jig
S:W.H.Giles MS,Bampton,Oxfordshire,1839p28
O:England
H:donated by Mrs W.R.Kettlewell to VWML,Apr 1927.
A:Bampton, Oxfordshire
N:4 blank bars marked “Sym” start the tune.
N:”Mz For” above the next bar (mezzoforte).
Z:PJHeadford – VMP 2009
M:6/8
L:1/8
Q:3/8=120
K:G
“^Mz For”
ddB d2B|d2B A2A|GBA B>cd|e2d (B3/4A/4)GF|
GBA B>cd|e2d/B/ d2z|ddB d2e|edB A2A|
fdB d2e|f2e d2z|ddB d2B|d2B A2A|
G<BA Bcd|e2d BzG|G<BA Bcd|e2d Bd2|]

